!!! OTL: Berkowitz385
!!! Chapter: 1
!!! Section: III
!!! Page: 95
!!! Mode: 
!!! Encoder: DJB
**kern
*staff1
*I"Piano
=1-
*clefF4
*k[b-e-a-d-]
*f:
*M6/8
8F\L
8E-\
8D-\J
4.C/
=2
8C\L
8En\
8G\J
4B-\
8d-\
=3
4c\
8A-\
4F\
8E-\
=4
4D-\
8c\
4B-\
8D-\
=5
4C/
8B-\
4A-\
8d-\
=6
8B-\L
8G\
8En\J
4C/
8A-\
=7
4.G\
4F\
8r
==
*-
